22x22/apps/quiterss.svg

<svg xmlns="http://www.w3.org/2000/svg" width="22" height="22" version="1.1">
 <path style="fill:#4dc76c" d="m 2.5,1 h 14 l 1.586911,1.6848366 c 0.569763,0.6049222 0.891695,0.9338498 1.5,1.4999999 L 21,5.5 v 14 C 21,20.331 20.331,21 19.5,21 H 2.5 C 1.669,21 1,20.331 1,19.5 V 2.5 C 1,1.669 1.669,1 2.5,1 Z"/>
 <path style="opacity:0.2;fill:#f4f4f7" d="M 2.5,1 C 1.669,1 1,1.669 1,2.5 V 3 C 1,2.169 1.669,1.5 2.5,1.5 h 12 V 1 Z"/>
 <path style="opacity:0.2" d="M 1,19.5 V 20 c 0,0.831 0.669,1.5 1.5,1.5 h 17 C 20.331,21.5 21,20.831 21,20 V 19.5 C 21,20.331 20.331,21 19.5,21 H 2.5 C 1.669,21 1,20.331 1,19.5 Z"/>
 <path style="opacity:0.2" d="m 3,8.5 c 0,0.5 0.5,1 1,1 4.97055,-5e-6 9,4.02945 9,9 0,0.5 0.45347,1 1,1 0.5,0 1,-0.5 1,-1 0,-6.075 -4.92485,-11 -11,-11 -0.5,0 -1,0.5 -1,1 z m 0,4 c 0,0.5 0.5,1 1,1 2.76145,-3e-6 5,2.23855 5,5 0,0.5 0.5,1 1,1 0.5,0 1,-0.5 1,-1 0,-3.866 -3.134,-7 -7,-7 -0.5,0 -1,0.5 -1,1 z m 2,3 c -1.10455,0 -2,0.89545 -2,2 0,1.1045 0.8955,2 2,2 1.10455,0 2,-0.89545 2,-2 0,-1.10455 -0.89545,-2 -2,-2 z"/>
 <path style="fill:#f4f4f7" d="m 3,8 c 0,0.5 0.5,1 1,1 4.97055,-5e-6 9,4.02945 9,9 0,0.5 0.45347,1 1,1 0.5,0 1,-0.5 1,-1 C 15,11.925 10.07515,7 4,7 3.5,7 3,7.5 3,8 Z m 0,4 c 0,0.5 0.5,1 1,1 2.76145,-3e-6 5,2.23855 5,5 0,0.5 0.5,1 1,1 0.5,0 1,-0.5 1,-1 0,-3.866 -3.134,-7 -7,-7 -0.5,0 -1,0.5 -1,1 z m 2,3 c -1.10455,0 -2,0.89545 -2,2 0,1.1045 0.8955,2 2,2 1.10455,0 2,-0.89545 2,-2 0,-1.10455 -0.89545,-2 -2,-2 z"/>
 <circle style="opacity:0.2" cx="16.5" cy="6" r="5.5"/>
 <circle style="fill:#ffbd1e" cx="16.5" cy="5.5" r="5.5"/>
 <path style="fill:#f4f4f7" d="M 16.5,1.4999999 17.736068,3.9688469 20.5,4.364745 18.5,6.2864745 18.972135,9 16.5,7.718847 14.027864,8.9999995 14.5,6.2864745 12.5,4.364745 15.263932,3.9688468 Z"/>
</svg>

<svg xmlns="http://www.w3.org/2000/svg" width="22" height="22"><path style="fill:#4dc76c" d="M2.5 1h14l1.587 1.685c.57.605.892.934 1.5 1.5L21 5.5v14c0 .831-.669 1.5-1.5 1.5h-17c-.831 0-1.5-.669-1.5-1.5v-17C1 1.669 1.669 1 2.5 1z"/><path style="opacity:.2;fill:#f4f4f7" d="M2.5 1C1.669 1 1 1.669 1 2.5V3c0-.831.669-1.5 1.5-1.5h12V1z"/><path style="opacity:.2" d="M1 19.5v.5c0 .831.669 1.5 1.5 1.5h17c.831 0 1.5-.669 1.5-1.5v-.5c0 .831-.669 1.5-1.5 1.5h-17c-.831 0-1.5-.669-1.5-1.5zM3 8.5c0 .5.5 1 1 1a9 9 0 0 1 9 9c0 .5.453 1 1 1 .5 0 1-.5 1-1 0-6.075-4.925-11-11-11-.5 0-1 .5-1 1zm0 4c0 .5.5 1 1 1a5 5 0 0 1 5 5c0 .5.5 1 1 1s1-.5 1-1a7 7 0 0 0-7-7c-.5 0-1 .5-1 1zm2 3a2 2 0 1 0 0 4 2 2 0 0 0 0-4z"/><path style="fill:#f4f4f7" d="M3 8c0 .5.5 1 1 1a9 9 0 0 1 9 9c0 .5.453 1 1 1 .5 0 1-.5 1-1 0-6.075-4.925-11-11-11-.5 0-1 .5-1 1zm0 4c0 .5.5 1 1 1a5 5 0 0 1 5 5c0 .5.5 1 1 1s1-.5 1-1a7 7 0 0 0-7-7c-.5 0-1 .5-1 1zm2 3a2 2 0 1 0 0 4 2 2 0 0 0 0-4z"/><circle style="opacity:.2" cx="16.5" cy="6" r="5.5"/><circle style="fill:#ffbd1e" cx="16.5" cy="5.5" r="5.5"/><path style="fill:#f4f4f7" d="m16.5 1.5 1.236 2.469 2.764.396-2 1.921L18.972 9 16.5 7.719 14.028 9l.472-2.714-2-1.921 2.764-.396z"/></svg>
